img/payments/Payeer.svg

<svg width="107" height="108" viewBox="0 0 107 108" fill="none" xmlns="http://www.w3.org/2000/svg">
<path d="M53.3994 106C24.7112 106.021 1.39944 82.7293 1.37892 54.0205C1.3584 25.3323 24.6496 2.02053 53.3584 2.00001C82.0466 1.97949 105.358 25.2707 105.379 53.9795C105.399 82.6677 82.1082 105.979 53.3994 106Z" fill="#0098DD"/>
<path fill-rule="evenodd" clip-rule="evenodd" d="M36.3486 22.5612C36.3692 33.2116 36.3692 43.8414 36.3692 54.4918C36.3692 56.634 36.37 58.7763 36.3708 60.9185C36.3741 69.4882 36.3774 78.0578 36.3281 86.6275C36.3281 87.3868 36.4923 87.6125 37.2721 87.592C40.2476 87.5304 43.2026 87.5304 46.1782 87.592C47.0195 87.592 47.2453 87.3868 47.2453 86.5249C47.2145 80.8925 47.2183 75.2716 47.2222 69.645C47.2234 67.7687 47.2247 65.8917 47.2247 64.0135C47.2247 63.3088 47.2247 62.96 47.3991 62.7873C47.5701 62.618 47.9087 62.618 48.5791 62.618C49.447 62.618 50.3149 62.6226 51.1823 62.6272C53.4941 62.6394 55.8029 62.6516 58.1008 62.577C60.8506 62.4949 63.6004 62.2487 66.2681 61.4894C71.2752 60.0529 74.2097 56.4207 76.0566 51.8446C78.3139 46.2424 78.2729 40.4144 76.9595 34.607C75.9745 30.2566 73.7583 26.6654 70.0645 24.0593C67.089 21.9661 63.6415 21.7814 60.2145 21.6583C55.2184 21.4832 50.2312 21.4938 45.2412 21.5043C42.6272 21.5098 40.0124 21.5153 37.3952 21.4941C36.5333 21.4941 36.3486 21.7199 36.3486 22.5612ZM47.2434 33.5194V42.0151C47.2434 42.5816 47.2443 43.1481 47.2451 43.7144C47.2484 45.9792 47.2516 48.2413 47.2024 50.4902C47.2024 51.1264 47.346 51.3931 48.0438 51.3726C49.2477 51.3452 50.4538 51.3544 51.66 51.3635C54.0724 51.3817 56.4847 51.4 58.8788 51.1264C60.8283 50.9006 62.5931 50.326 63.968 48.828C66.4716 46.0987 66.9025 42.8359 66.1637 39.3884C65.4455 36.0435 63.0856 33.4373 59.3713 33.068C56.2607 32.7502 53.1638 32.7323 50.0583 32.7143C49.3531 32.7103 48.6475 32.7062 47.9411 32.6986C47.2845 32.6986 47.2434 33.0064 47.2434 33.5194Z" fill="#FEFEFE"/>
<path d="M53.3789 104.775C25.3366 104.775 2.60391 82.0423 2.60391 54H0.153906C0.153906 83.3954 23.9836 107.225 53.3789 107.225V104.775ZM104.154 54C104.154 82.0423 81.4212 104.775 53.3789 104.775V107.225C82.7743 107.225 106.604 83.3954 106.604 54H104.154ZM53.3789 3.225C81.4212 3.225 104.154 25.9577 104.154 54H106.604C106.604 24.6046 82.7743 0.775 53.3789 0.775V3.225ZM53.3789 0.775C23.9836 0.775 0.153906 24.6046 0.153906 54H2.60391C2.60391 25.9577 25.3366 3.225 53.3789 3.225V0.775Z" fill="white"/>
</svg>

<svg width="107" height="108" fill="none" xmlns="http://www.w3.org/2000/svg"><path d="M53.4 106c-28.689.021-52-23.27-52.021-51.98-.02-28.688 23.27-52 51.98-52.02 28.688-.02 51.999 23.27 52.02 51.98.02 28.688-23.27 51.999-51.98 52.02z" fill="#0098DD"/><path fill-rule="evenodd" clip-rule="evenodd" d="M36.349 22.561c.02 10.65.02 21.28.02 31.93l.002 6.428c.003 8.57.006 17.139-.043 25.709 0 .759.164.984.944.964a214.63 214.63 0 018.906 0c.842 0 1.067-.205 1.067-1.067a2737.73 2737.73 0 01-.023-16.88c.001-1.876.003-3.753.003-5.632 0-.704 0-1.053.174-1.226.171-.169.51-.169 1.18-.169.868 0 1.736.005 2.603.01 2.312.011 4.62.024 6.919-.051 2.75-.082 5.5-.328 8.167-1.088 5.007-1.436 7.942-5.068 9.789-9.644 2.257-5.603 2.216-11.43.903-17.238-.985-4.35-3.202-7.942-6.895-10.548-2.976-2.093-6.423-2.278-9.85-2.4-4.997-.176-9.984-.165-14.974-.155-2.614.006-5.229.011-7.846-.01-.862 0-1.046.226-1.046 1.067zM47.243 33.52v8.496l.002 1.7c.003 2.264.007 4.526-.043 6.775 0 .636.144.903.842.883 1.204-.028 2.41-.019 3.616-.01 2.412.019 4.825.037 7.219-.237 1.95-.225 3.714-.8 5.089-2.298 2.504-2.73 2.934-5.992 2.196-9.44-.719-3.344-3.078-5.95-6.793-6.32-3.11-.318-6.207-.336-9.313-.354-.705-.004-1.41-.008-2.117-.015-.657 0-.698.307-.698.82z" fill="#FEFEFE"/><path d="M53.379 104.775C25.337 104.775 2.604 82.042 2.604 54H.154c0 29.395 23.83 53.225 53.225 53.225v-2.45zM104.154 54c0 28.042-22.733 50.775-50.775 50.775v2.45c29.395 0 53.225-23.83 53.225-53.225h-2.45zM53.379 3.225c28.042 0 50.775 22.733 50.775 50.775h2.45c0-29.395-23.83-53.225-53.225-53.225v2.45zm0-2.45C23.984.775.154 24.605.154 54h2.45c0-28.042 22.733-50.775 50.775-50.775V.775z" fill="#fff"/></svg>
